poi/svg/1601.svg

<?xml version="1.0" encoding="UTF-8" standalone="no"?>
<svg
   xmlns:dc="http://purl.org/dc/elements/1.1/"
   xmlns:cc="http://creativecommons.org/ns#"
   xmlns:rdf="http://www.w3.org/1999/02/22-rdf-syntax-ns#"
   xmlns:svg="http://www.w3.org/2000/svg"
   xmlns="http://www.w3.org/2000/svg"
   xmlns:sodipodi="http://sodipodi.sourceforge.net/DTD/sodipodi-0.dtd"
   xmlns:inkscape="http://www.inkscape.org/namespaces/inkscape"
   inkscape:version="1.0 (4035a4fb49, 2020-05-01)"
   sodipodi:docname="1601.svg"
   id="svg20"
   version="1.2"
   viewBox="0 0 42.519639 42.519639"
   height="14.999999mm"
   width="14.999999mm">
  <metadata
     id="metadata24">
    <rdf:RDF>
      <cc:Work
         rdf:about="">
        <dc:format>image/svg+xml</dc:format>
        <dc:type
           rdf:resource="http://purl.org/dc/dcmitype/StillImage" />
        <dc:title>Qt SVG Document</dc:title>
      </cc:Work>
    </rdf:RDF>
  </metadata>
  <sodipodi:namedview
     inkscape:current-layer="svg20"
     inkscape:window-maximized="0"
     inkscape:window-y="0"
     inkscape:window-x="0"
     inkscape:cy="28.346482"
     inkscape:cx="28.346482"
     inkscape:zoom="5.8410537"
     showgrid="false"
     id="namedview22"
     inkscape:window-height="480"
     inkscape:window-width="1034"
     inkscape:pageshadow="2"
     inkscape:pageopacity="0"
     guidetolerance="10"
     gridtolerance="10"
     objecttolerance="10"
     borderopacity="1"
     bordercolor="#666666"
     pagecolor="#ffffff" />
  <title
     id="title2">Qt SVG Document</title>
  <desc
     id="desc4">Generated with Qt</desc>
  <defs
     id="defs6" />
  <g
     transform="translate(5.25984,5.25984)"
     id="g18"
     stroke-linejoin="bevel"
     stroke-linecap="square"
     fill-rule="evenodd"
     stroke-width="1"
     stroke="#000000"
     fill="none">
    <g
       id="g10"
       font-style="normal"
       font-weight="400"
       font-size="7.8px"
       font-family="'MS Shell Dlg 2'"
       stroke="none"
       fill-opacity="1"
       fill="#53a54f">
      <path
         id="path8"
         d="M 37.2598,16 C 37.2598,27.7415 27.7415,37.2598 16,37.2598 4.25851,37.2598 -5.25984,27.7415 -5.25984,16 -5.25984,4.25851 4.25851,-5.25984 16,-5.25984 27.7415,-5.25984 37.2598,4.25851 37.2598,16"
         fill-rule="evenodd"
         vector-effect="non-scaling-stroke" />
    </g>
    <g
       id="g14"
       font-style="normal"
       font-weight="400"
       font-size="7.8px"
       font-family="'MS Shell Dlg 2'"
       transform="translate(16,13.7323)"
       stroke="none"
       fill-opacity="1"
       fill="#ffffff">
      <path
         id="path12"
         d="m -5.48877,3.71094 c -0.5179,0.09798 -0.98682,0.28694 -1.40674,0.56689 -0.41992,0.27995 -0.74186,0.63688 -0.96582,1.0708 -0.22396,0.43392 -0.33594,0.92383 -0.33594,1.46973 0,0.5459 0.16797,1.11979 0.50391,1.72168 0.028,-0.29395 0.04199,-0.61239 0.04199,-0.95532 0,-0.34294 0.06649,-0.66488 0.19947,-0.96582 0.13297,-0.30095 0.35693,-0.5739 0.67187,-0.81885 0.31494,-0.24496 0.80135,-0.39543 1.45923,-0.45142 0.36393,-0.05599 0.68237,-0.09098 0.95532,-0.10498 0.27295,-0.014 0.5564,0.021 0.85034,0.10498 -0.13997,0.68588 -0.22745,1.40324 -0.26245,2.1521 -0.03499,0.74886 0.0245,1.53622 0.17847,2.36206 -0.60189,0.37791 -1.20378,0.56691 -1.80567,0.56691 -0.86783,0 -1.61669,-0.294 -2.24658,-0.88185 C -8.28125,8.95996 -8.92513,8.25309 -9.58301,7.42725 -9.96094,6.93734 -10.3214,6.40544 -10.6643,5.83154 -11.0072,5.25765 -11.2907,4.64876 -11.5146,4.00488 -11.7386,3.361 -11.8961,2.69263 -11.9871,1.99976 c -0.0909,-0.69288 -0.0664,-1.410242 0.0735,-2.152104 0.098,-0.489909 0.133,-0.941326 0.105,-1.354246 -0.028,-0.41292 -0.0665,-0.80485 -0.1155,-1.17578 -0.049,-0.37093 -0.0805,-0.74536 -0.0945,-1.12329 -0.014,-0.37793 0.021,-0.77686 0.105,-1.19678 0.182,-0.69987 0.35,-1.0778 0.5039,-1.13379 0.154,-0.05599 0.4409,0.0105 0.8609,0.19946 0.4199,0.18897 1.03578,0.41992 1.84763,0.69287 0.81185,0.27295 1.96663,0.40943 3.46435,0.40943 1.45573,0.02799 2.59302,-0.08749 3.41187,-0.34644 0.81885,-0.25895 1.44523,-0.48291 1.8791492,-0.67187 0.4339188,-0.18897 0.7208658,-0.23796 0.8608398,-0.14698 0.139971,0.09099 0.279951,0.47941 0.419921,1.16529 0.08399,0.60189 0.08399,1.17578 0,1.72168 C 0.971029,-2.83285 0.698079,-2.5599 0.516113,-2.29395 0.376139,-2.15397 0.278158,-2.04899 0.222168,-1.979 0.166178,-1.90902 0.0961914,-1.77604 0.012207,-1.58008 -0.225749,-1.4821 -0.544189,-1.4401 -0.943115,-1.4541 -1.34204,-1.4681 -1.73047,-1.51009 -2.1084,-1.58008 c -0.33594,0 -0.63338,-0.06999 -0.89233,-0.20996 -0.25895,-0.13997 -0.49691,-0.30444 -0.71387,-0.49341 -0.21696,-0.18896 -0.40242,-0.37443 -0.5564,-0.55639 -0.15397,-0.18197 -0.28694,-0.30095 -0.39892,-0.35694 0,0.16797 0.014,0.41643 0.04199,0.74536 0.028,0.32894 0.10498,0.65088 0.23096,0.96582 0.12597,0.31495 0.33244,0.608891 0.61938,0.88184 0.28695,0.272949 0.70337,0.451416 1.24927,0.5354006 0.27995,0.0559896 0.63688,0.0209961 1.0708,-0.1049806 0.43392,-0.125976 0.734864,-0.230957 0.902832,-0.314941 L -0.806641,0.015625 C -0.946615,0.393555 -1.08309,0.725993 -1.21606,1.01294 -1.34904,1.29989 -1.5415,1.59733 -1.79346,1.90527 -2.1154,2.3112 -2.37435,2.68563 -2.57031,3.02856 -2.76628,3.3715 -2.96924,3.78792 -3.1792,4.27783 -3.43115,4.13786 -3.78109,3.99438 -4.229,3.84741 -4.67692,3.70044 -5.09684,3.65495 -5.48877,3.71094 m -2.7085,-3.947268 c 0.53191,0.027995 0.95183,-0.080485 1.25977,-0.32544 0.30794,-0.244954 0.5389,-0.531902 0.69287,-0.860842 0.15397,-0.32894 0.25195,-0.66487 0.29395,-1.00781 0.04199,-0.34294 0.06298,-0.59839 0.06298,-0.76636 -0.13997,0.05599 -0.29044,0.16797 -0.45141,0.33594 -0.16097,0.16797 -0.35344,0.33944 -0.57739,0.5144 -0.22396,0.17497 -0.48641,0.33244 -0.78736,0.47242 -0.30094,0.13997 -0.65438,0.20996 -1.0603,0.20996 -0.40592,0.05599 -0.79435,0.08398 -1.16528,0.08398 -0.37096,0 -0.69636,-0.06999 -0.97636,-0.20996 0.056,0.37793 0.385,0.71737 0.98685,1.018311 0.60189,0.300944 1.17579,0.479411 1.72168,0.535401 M 7.40283,1.82129 c 1.31576,0.71387 2.41105,1.15828 3.28587,1.33325 0.8749,0.17497 1.5502,0.29045 2.0261,0.34644 0.476,0.05599 0.7629,0.15747 0.8609,0.30444 0.098,0.14697 0.049,0.5494 -0.147,1.20728 -0.154,0.39192 -0.3289,0.74886 -0.5249,1.0708 -0.196,0.32194 -0.4024,0.63338 -0.6194,0.93432 C 12.0675,7.31877 11.8505,7.64771 11.6335,8.00464 11.4166,8.36157 11.2381,8.771 11.0981,9.23291 10.6362,10.6606 9.84888,11.8119 8.73608,12.6868 7.62329,13.5616 6.45101,14.244 5.21924,14.7339 4.29541,15.0978 3.41707,15.3813 2.58423,15.5842 1.75138,15.7872 0.950033,15.6577 0.180176,15.1958 -0.589681,14.8039 -1.12508,14.2055 -1.42603,13.4006 -1.72697,12.5958 -1.98242,11.6895 -2.19238,10.6816 -2.33236,10.0238 -2.42334,9.35189 -2.46533,8.66602 -2.50732,7.98014 -2.48633,7.29077 -2.40234,6.5979 -2.31836,5.90503 -2.13989,5.23665 -1.86694,4.59277 -1.59399,3.94889 -1.21257,3.32601 -0.722656,2.72412 -0.442708,2.36019 -0.215251,1.99626 -0.0402832,1.63232 0.134684,1.26839 0.292155,0.907959 0.432129,0.551025 0.572103,0.194092 0.722575,-0.148844 0.883545,-0.477783 1.04451,-0.806722 1.25098,-1.13916 1.50293,-1.4751 1.96484,-1.993 2.28328,-2.24495 2.45825,-2.23096 c 0.17497,0.014 0.40593,0.19947 0.69287,0.5564 0.28695,0.35693 0.73137,0.850341 1.33326,1.480224 0.60188,0.629883 1.5747,1.301756 2.91845,2.015626 M 3.05664,2.3042 C 2.80469,2.16423 2.53524,2.09424 2.24829,2.09424 1.96134,2.09424 1.6814,2.13623 1.40845,2.22021 1.1355,2.3042 0.890544,2.43018 0.673584,2.59814 0.456624,2.76611 0.292155,2.96908 0.180176,3.20703 0.488118,3.12305 0.771566,3.15804 1.03052,3.31201 1.28947,3.46598 1.60791,3.73193 1.98584,4.10986 2.47575,4.50179 2.85718,4.95671 3.13013,5.47461 3.40308,5.99251 3.59554,6.41243 3.70752,6.73438 3.84749,6.30046 3.93848,5.84554 3.98047,5.36963 4.02246,4.89372 4.01546,4.4563 3.95947,4.05737 3.90348,3.65845 3.8055,3.30151 3.66553,2.98657 3.52555,2.67163 3.32259,2.44417 3.05664,2.3042 m -1.88965,10.708 c 0.46192,0.252 1.02181,0.3499 1.67969,0.294 0.65788,-0.056 1.32275,-0.1995 1.99463,-0.4305 0.67187,-0.2309 1.30876,-0.5179 1.91064,-0.8608 0.60189,-0.3429 1.0778,-0.6684 1.42774,-0.9763 -0.29395,0.1399 -0.67538,0.2939 -1.14429,0.4619 -0.46891,0.168 -0.98332,0.2974 -1.54321,0.3884 -0.5599,0.091 -1.13379,0.105 -1.72168,0.042 C 3.18262,11.8679 2.64372,11.6965 2.15381,11.4165 1.6639,11.1226 1.26847,10.7481 0.967529,10.2932 0.666585,9.8383 0.432129,9.37288 0.26416,8.89697 0.0961914,8.42106 -0.0227865,7.95565 -0.0927734,7.50073 -0.16276,7.04582 -0.232747,6.65739 -0.302734,6.33545 c -0.139974,0.5459 -0.21696,1.15478 -0.230957,1.82666 -0.013998,0.67187 0.027994,1.33325 0.125976,1.98409 0.097982,0.6509 0.276449,1.2318 0.535401,1.7427 0.258951,0.5109 0.605387,0.8854 1.039304,1.1233 M 10.1953,8.79199 C 10.4333,8.33008 10.5208,7.79818 10.4578,7.19629 10.3948,6.5944 10.1253,6.16748 9.64941,5.91553 9.38346,5.77555 9.05103,5.69857 8.6521,5.68457 8.25317,5.67057 7.83675,5.72656 7.40283,5.85254 6.96891,5.97852 6.53849,6.16398 6.11157,6.40894 5.68465,6.65389 5.32422,6.95833 5.03027,7.32227 5.35221,7.26628 5.77913,7.22428 6.31104,7.19629 6.84294,7.16829 7.43783,7.27327 8.0957,7.51123 8.58561,7.6512 9.02303,7.82967 9.40796,8.04663 9.79289,8.26359 10.0553,8.51204 10.1953,8.79199"
         fill-rule="evenodd"
         vector-effect="none" />
    </g>
    <g
       id="g16"
       font-style="normal"
       font-weight="400"
       font-size="7.8px"
       font-family="'MS Shell Dlg 2'"
       stroke="none"
       fill-opacity="1"
       fill="#53a54f" />
  </g>
</svg>

<?xml version="1.0" encoding="UTF-8" standalone="no"?>
<svg width="11.2889mm" height="11.2889mm"
 viewBox="0 0 32 32"
 xmlns="http://www.w3.org/2000/svg" xmlns:xlink="http://www.w3.org/1999/xlink"  version="1.2" baseProfile="tiny">
<title>Qt SVG Document</title>
<desc>Generated with Qt</desc>
<defs>
</defs>
<g fill="none" stroke="black" stroke-width="1" fill-rule="evenodd" stroke-linecap="square" stroke-linejoin="bevel" >

<g fill="#53a54f" fill-opacity="1" stroke="none" transform="matrix(1,0,0,1,0,0)"
font-family="MS Shell Dlg 2" font-size="7.8" font-weight="400" font-style="normal" 
>
<path vector-effect="non-scaling-stroke" fill-rule="evenodd" d="M37.2598,16 C37.2598,27.7415 27.7415,37.2598 16,37.2598 C4.25851,37.2598 -5.25984,27.7415 -5.25984,16 C-5.25984,4.25851 4.25851,-5.25984 16,-5.25984 C27.7415,-5.25984 37.2598,4.25851 37.2598,16 "/>
</g>

<g fill="#ffffff" fill-opacity="1" stroke="none" transform="matrix(1,0,0,1,16,13.7323)"
font-family="MS Shell Dlg 2" font-size="7.8" font-weight="400" font-style="normal" 
>
<path vector-effect="none" fill-rule="evenodd" d="M-5.48877,3.71094 C-6.00667,3.80892 -6.47559,3.99788 -6.89551,4.27783 C-7.31543,4.55778 -7.63737,4.91471 -7.86133,5.34863 C-8.08529,5.78255 -8.19727,6.27246 -8.19727,6.81836 C-8.19727,7.36426 -8.0293,7.93815 -7.69336,8.54004 C-7.66536,8.24609 -7.65137,7.92765 -7.65137,7.58472 C-7.65137,7.24178 -7.58488,6.91984 -7.4519,6.6189 C-7.31893,6.31795 -7.09497,6.045 -6.78003,5.80005 C-6.46509,5.55509 -5.97868,5.40462 -5.3208,5.34863 C-4.95687,5.29264 -4.63843,5.25765 -4.36548,5.24365 C-4.09253,5.22965 -3.80908,5.26465 -3.51514,5.34863 C-3.65511,6.03451 -3.74259,6.75187 -3.77759,7.50073 C-3.81258,8.24959 -3.75309,9.03695 -3.59912,9.86279 C-4.20101,10.2407 -4.8029,10.4297 -5.40479,10.4297 C-6.27262,10.4297 -7.02148,10.1357 -7.65137,9.54785 C-8.28125,8.95996 -8.92513,8.25309 -9.58301,7.42725 C-9.96094,6.93734 -10.3214,6.40544 -10.6643,5.83154 C-11.0072,5.25765 -11.2907,4.64876 -11.5146,4.00488 C-11.7386,3.361 -11.8961,2.69263 -11.9871,1.99976 C-12.078,1.30688 -12.0535,0.589518 -11.9136,-0.152344 C-11.8156,-0.642253 -11.7806,-1.09367 -11.8086,-1.50659 C-11.8366,-1.91951 -11.8751,-2.31144 -11.9241,-2.68237 C-11.9731,-3.0533 -12.0046,-3.42773 -12.0186,-3.80566 C-12.0326,-4.18359 -11.9976,-4.58252 -11.9136,-5.00244 C-11.7316,-5.70231 -11.5636,-6.08024 -11.4097,-6.13623 C-11.2557,-6.19222 -10.9688,-6.12573 -10.5488,-5.93677 C-10.1289,-5.7478 -9.51302,-5.51685 -8.70117,-5.2439 C-7.88932,-4.97095 -6.73454,-4.83447 -5.23682,-4.83447 C-3.78109,-4.80648 -2.6438,-4.92196 -1.82495,-5.18091 C-1.0061,-5.43986 -0.37972,-5.66382 0.0541992,-5.85278 C0.488118,-6.04175 0.775065,-6.09074 0.915039,-5.99976 C1.05501,-5.90877 1.19499,-5.52035 1.33496,-4.83447 C1.41895,-4.23258 1.41895,-3.65869 1.33496,-3.11279 C0.971029,-2.83285 0.698079,-2.5599 0.516113,-2.29395 C0.376139,-2.15397 0.278158,-2.04899 0.222168,-1.979 C0.166178,-1.90902 0.0961914,-1.77604 0.012207,-1.58008 C-0.225749,-1.4821 -0.544189,-1.4401 -0.943115,-1.4541 C-1.34204,-1.4681 -1.73047,-1.51009 -2.1084,-1.58008 C-2.44434,-1.58008 -2.74178,-1.65007 -3.00073,-1.79004 C-3.25968,-1.93001 -3.49764,-2.09448 -3.7146,-2.28345 C-3.93156,-2.47241 -4.11702,-2.65788 -4.271,-2.83984 C-4.42497,-3.02181 -4.55794,-3.14079 -4.66992,-3.19678 C-4.66992,-3.02881 -4.65592,-2.78035 -4.62793,-2.45142 C-4.59993,-2.12248 -4.52295,-1.80054 -4.39697,-1.4856 C-4.271,-1.17065 -4.06453,-0.876709 -3.77759,-0.60376 C-3.49064,-0.330811 -3.07422,-0.152344 -2.52832,-0.0683594 C-2.24837,-0.0123698 -1.89144,-0.0473633 -1.45752,-0.17334 C-1.0236,-0.299316 -0.722656,-0.404297 -0.554688,-0.488281 L-0.806641,0.015625 C-0.946615,0.393555 -1.08309,0.725993 -1.21606,1.01294 C-1.34904,1.29989 -1.5415,1.59733 -1.79346,1.90527 C-2.1154,2.3112 -2.37435,2.68563 -2.57031,3.02856 C-2.76628,3.3715 -2.96924,3.78792 -3.1792,4.27783 C-3.43115,4.13786 -3.78109,3.99438 -4.229,3.84741 C-4.67692,3.70044 -5.09684,3.65495 -5.48877,3.71094 M-8.19727,-0.236328 C-7.66536,-0.208333 -7.24544,-0.316813 -6.9375,-0.561768 C-6.62956,-0.806722 -6.3986,-1.09367 -6.24463,-1.42261 C-6.09066,-1.75155 -5.99268,-2.08748 -5.95068,-2.43042 C-5.90869,-2.77336 -5.8877,-3.02881 -5.8877,-3.19678 C-6.02767,-3.14079 -6.17814,-3.02881 -6.33911,-2.86084 C-6.50008,-2.69287 -6.69255,-2.5214 -6.9165,-2.34644 C-7.14046,-2.17147 -7.40291,-2.014 -7.70386,-1.87402 C-8.0048,-1.73405 -8.35824,-1.66406 -8.76416,-1.66406 C-9.17008,-1.60807 -9.55851,-1.58008 -9.92944,-1.58008 C-10.3004,-1.58008 -10.6258,-1.65007 -10.9058,-1.79004 C-10.8498,-1.41211 -10.5208,-1.07267 -9.91895,-0.771729 C-9.31706,-0.470785 -8.74316,-0.292318 -8.19727,-0.236328 M7.40283,1.82129 C8.71859,2.53516 9.81388,2.97957 10.6887,3.15454 C11.5636,3.32951 12.2389,3.44499 12.7148,3.50098 C13.1908,3.55697 13.4777,3.65845 13.5757,3.80542 C13.6737,3.95239 13.6247,4.35482 13.4287,5.0127 C13.2747,5.40462 13.0998,5.76156 12.9038,6.0835 C12.7078,6.40544 12.5014,6.71688 12.2844,7.01782 C12.0675,7.31877 11.8505,7.64771 11.6335,8.00464 C11.4166,8.36157 11.2381,8.771 11.0981,9.23291 C10.6362,10.6606 9.84888,11.8119 8.73608,12.6868 C7.62329,13.5616 6.45101,14.244 5.21924,14.7339 C4.29541,15.0978 3.41707,15.3813 2.58423,15.5842 C1.75138,15.7872 0.950033,15.6577 0.180176,15.1958 C-0.589681,14.8039 -1.12508,14.2055 -1.42603,13.4006 C-1.72697,12.5958 -1.98242,11.6895 -2.19238,10.6816 C-2.33236,10.0238 -2.42334,9.35189 -2.46533,8.66602 C-2.50732,7.98014 -2.48633,7.29077 -2.40234,6.5979 C-2.31836,5.90503 -2.13989,5.23665 -1.86694,4.59277 C-1.59399,3.94889 -1.21257,3.32601 -0.722656,2.72412 C-0.442708,2.36019 -0.215251,1.99626 -0.0402832,1.63232 C0.134684,1.26839 0.292155,0.907959 0.432129,0.551025 C0.572103,0.194092 0.722575,-0.148844 0.883545,-0.477783 C1.04451,-0.806722 1.25098,-1.13916 1.50293,-1.4751 C1.96484,-1.993 2.28328,-2.24495 2.45825,-2.23096 C2.63322,-2.21696 2.86418,-2.03149 3.15112,-1.67456 C3.43807,-1.31763 3.88249,-0.824219 4.48438,-0.194336 C5.08626,0.435547 6.05908,1.10742 7.40283,1.82129 M3.05664,2.3042 C2.80469,2.16423 2.53524,2.09424 2.24829,2.09424 C1.96134,2.09424 1.6814,2.13623 1.40845,2.22021 C1.1355,2.3042 0.890544,2.43018 0.673584,2.59814 C0.456624,2.76611 0.292155,2.96908 0.180176,3.20703 C0.488118,3.12305 0.771566,3.15804 1.03052,3.31201 C1.28947,3.46598 1.60791,3.73193 1.98584,4.10986 C2.47575,4.50179 2.85718,4.95671 3.13013,5.47461 C3.40308,5.99251 3.59554,6.41243 3.70752,6.73438 C3.84749,6.30046 3.93848,5.84554 3.98047,5.36963 C4.02246,4.89372 4.01546,4.4563 3.95947,4.05737 C3.90348,3.65845 3.8055,3.30151 3.66553,2.98657 C3.52555,2.67163 3.32259,2.44417 3.05664,2.3042 M1.16699,13.0122 C1.62891,13.2642 2.1888,13.3621 2.84668,13.3062 C3.50456,13.2502 4.16943,13.1067 4.84131,12.8757 C5.51318,12.6448 6.15007,12.3578 6.75195,12.0149 C7.35384,11.672 7.82975,11.3465 8.17969,11.0386 C7.88574,11.1785 7.50431,11.3325 7.0354,11.5005 C6.56649,11.6685 6.05208,11.7979 5.49219,11.8889 C4.93229,11.9799 4.3584,11.9939 3.77051,11.9309 C3.18262,11.8679 2.64372,11.6965 2.15381,11.4165 C1.6639,11.1226 1.26847,10.7481 0.967529,10.2932 C0.666585,9.8383 0.432129,9.37288 0.26416,8.89697 C0.0961914,8.42106 -0.0227865,7.95565 -0.0927734,7.50073 C-0.16276,7.04582 -0.232747,6.65739 -0.302734,6.33545 C-0.442708,6.88135 -0.519694,7.49023 -0.533691,8.16211 C-0.547689,8.83398 -0.505697,9.49536 -0.407715,10.1462 C-0.309733,10.7971 -0.131266,11.378 0.127686,11.8889 C0.386637,12.3998 0.733073,12.7743 1.16699,13.0122 M10.1953,8.79199 C10.4333,8.33008 10.5208,7.79818 10.4578,7.19629 C10.3948,6.5944 10.1253,6.16748 9.64941,5.91553 C9.38346,5.77555 9.05103,5.69857 8.6521,5.68457 C8.25317,5.67057 7.83675,5.72656 7.40283,5.85254 C6.96891,5.97852 6.53849,6.16398 6.11157,6.40894 C5.68465,6.65389 5.32422,6.95833 5.03027,7.32227 C5.35221,7.26628 5.77913,7.22428 6.31104,7.19629 C6.84294,7.16829 7.43783,7.27327 8.0957,7.51123 C8.58561,7.6512 9.02303,7.82967 9.40796,8.04663 C9.79289,8.26359 10.0553,8.51204 10.1953,8.79199 "/>
</g>

<g fill="#53a54f" fill-opacity="1" stroke="none" transform="matrix(1,0,0,1,0,0)"
font-family="MS Shell Dlg 2" font-size="7.8" font-weight="400" font-style="normal" 
>
</g>
</g>
</svg>
